X:38
T:Bobby Shafto
C:from the Knots of May repertoire
Q:1/4=180
I:abc2nwc
M:4/4
L:1/8
K:G
D2|G4B2G2|Bc d2B2G2|E2A2A2G2|FG A2F2D2|
G4B2G2|Bc d2B2G2|E2c2A2F2|[1G4G2:|[2G4G4
|:g2d2d2c2|Bc d2B2G2|E2A2A2G2|FG A2F2D2|
g2d2d2c2|Bc d2B2G2|E2c2A2F2|G4G4:|


